Numix/categories/48/applications-sports.svg

<svg width="47.5" xmlns="http://www.w3.org/2000/svg" height="47.5" viewBox="0 0 38 38" xmlns:xlink="http://www.w3.org/1999/xlink">
<path style="fill:#9c9d38;stroke:#9c9d38;stroke-width:1.449" d="M 337.369081 491.214178 C 276.480017 487.04932 223.007172 438.82867 207.90851 380.444238 C 193.988836 319.958271 221.638024 251.792154 275.605283 220.192726 C 310.290371 199.406645 353.836891 196.770175 392.249105 207.621732 C 439.674878 222.25605 475.805179 264.668825 488.4698 311.934233 C 499.879368 355.531508 491.664479 405.013079 461.39109 439.363606 C 433.970094 473.637713 390.157351 493.392132 346.306576 491.634485 C 343.340088 491.596275 340.335568 491.443437 337.369081 491.214178 Z M 373.651508 484.374641 C 384.604694 483.419398 382.665068 480.056944 372.738743 479.178121 C 354.977848 475.739247 335.809773 475.662828 318.657388 481.699961 C 333.75605 488.998015 353.798859 487.08753 370.685021 484.909577 Z M 319.874409 474.707585 C 327.670947 466.721756 319.532122 447.655112 312.724413 440.08959 C 297.473623 432.2566 285.683735 419.532768 271.72603 409.903922 C 261.229227 406.044741 250.998647 413.342795 240.882163 415.826426 C 240.844131 425.875579 240.159557 437.262072 248.982956 444.254448 C 263.51114 458.621298 281.043844 471.268711 300.820429 477.000167 C 307.171756 477.267635 313.827337 476.885538 319.874409 474.707585 Z M 403.354418 475.127892 C 428.645629 464.199915 452.339499 446.62345 466.60146 422.704174 C 471.735766 415.826426 475.500923 403.752159 462.113696 407.764178 C 445.265567 418.386477 430.052809 431.530616 412.82436 441.579769 C 402.365589 449.909485 394.835274 461.334187 387.381023 472.262164 C 389.967191 478.299297 398.410272 476.847329 403.354418 475.127892 Z M 420.506803 431.186729 C 433.209456 420.717269 451.578861 413.99236 458.272475 398.135332 C 461.276995 385.640758 461.505186 372.725877 462.760239 360.002044 C 450.095618 348.730181 434.578604 341.088239 419.365846 333.866605 C 404.343248 335.051105 392.211073 348.462713 380.30709 357.136316 C 373.993795 360.6134 375.629167 368.522809 373.8797 374.559943 C 371.597786 388.697534 368.935553 402.758706 367.376246 417.010927 C 379.204165 425.76095 392.401233 433.823198 406.777289 437.223862 C 411.987659 437.262072 416.285263 433.746779 420.506803 431.186729 Z M 329.876797 433.364682 C 341.400461 428.970566 356.613219 425.646321 362.013749 413.419215 C 366.045129 396.301266 368.250979 378.76301 370.380765 361.301174 C 358.933165 350.373198 346.724927 338.872076 331.74036 333.21704 C 318.809516 332.987781 307.85633 342.158111 296.370698 347.163583 C 280.891716 351.40486 275.491187 365.504242 274.844645 380.10035 C 270.280818 394.543619 275.491187 409.368986 288.536127 417.316605 C 299.945696 425.72274 314.587975 439.172557 329.876797 433.364682 Z M 233.580039 413.151747 C 224.262225 395.842749 217.834834 376.890735 215.248665 357.365574 C 206.006915 359.23785 214.411964 381.972626 216.960101 391.219375 C 221.295737 403.752159 227.951318 415.29149 234.873123 426.525144 C 236.128176 421.90177 236.888814 417.316605 233.580039 413.151747 Z M 229.58669 336.082768 C 233.656103 330.236682 240.121525 325.651518 242.593598 318.964819 C 246.891202 298.790093 253.927103 279.303143 264.005555 261.229951 C 263.587204 249.575991 250.580296 242.468985 244.114874 255.345656 C 225.707437 279.112094 211.255316 308.113262 210.608774 338.719237 C 208.174733 349.226907 217.302388 356.830639 222.550789 344.412484 C 224.870735 341.661385 227.228712 338.872076 229.58669 336.082768 Z M 466.867683 350.564247 C 474.664222 340.285835 485.46528 328.096939 482.688952 314.150396 C 477.782837 287.747488 464.281514 262.68192 443.5161 245.487552 C 437.316901 242.851082 426.05946 233.222236 421.761856 242.316146 C 415.410529 254.581462 399.589261 266.159004 405.294045 281.404677 C 410.162128 296.459301 413.737126 312.163491 420.84909 326.339292 C 433.970094 336.579494 449.106788 344.565323 464.357578 351.290231 Z M 292.643572 343.724709 C 304.737715 337.572946 316.48957 330.809828 328.279458 324.161339 C 332.234775 310.214796 337.254985 296.61214 341.894876 282.933065 C 342.541418 268.107699 329.344351 257.4854 320.558983 247.09236 C 311.887711 233.184026 297.245431 243.844535 286.558469 248.926426 C 263.054758 261.535629 257.654228 289.237667 249.629499 312.392749 C 250.770455 321.066353 258.68109 328.287987 264.461938 334.745428 C 272.410604 342.807676 281.386131 353.506394 292.643572 343.724709 Z M 379.356293 268.871893 C 385.631555 267.99307 392.629424 268.642635 398.410272 266.846778 C 407.119576 257.4854 414.763987 246.519214 418.377017 234.177479 C 414.003349 221.759324 399.551229 216.104287 387.913469 211.86301 C 373.119062 207.468893 357.259762 205.29094 341.894876 207.048587 C 330.827595 212.703623 310.936913 229.172007 322.156322 241.972259 C 330.371212 251.792154 339.118548 261.115322 348.056043 270.323862 C 358.514814 270.438491 368.935553 269.597877 379.356293 268.871893 Z " transform="matrix(.10271 0 0 .10223 -16.83081 -16.42868)"/>
</svg>

<svg xmlns="http://www.w3.org/2000/svg" viewBox="0 0 256 256" xmlns:xlink="http://www.w3.org/1999/xlink">
<g style="fill:#9c9e39;stroke:#9c9e39;stroke-width:1.449" transform="matrix(.69194 0 0 .68872 -113.38653 -110.67745)">
<path d="m 337.3718,491.22036 c -60.89654,-4.18869 -114.37185,-52.39588 -129.46432,-110.75899 -13.92403,-60.51714 13.72781,-128.66429 67.68081,-160.25865 34.70364,-20.81281 78.2499,-23.41489 116.65645,-12.57385 47.44169,14.63915 83.55397,57.02856 96.23054,104.32247 11.38837,43.58236 3.17457,93.06821 -27.09434,127.41088 -27.41441,34.28749 -71.2356,54.04117 -115.05713,52.27724 -2.98696,-0.0622 -5.97228,-0.2033 -8.95201,-0.4191 z m 36.29688,-6.85895 c 10.92736,-0.95742 9.00668,-4.32212 -0.9325,-5.17607 -17.75675,-3.43155 -36.92973,-3.52104 -54.06707,2.49666 15.08558,7.30376 35.12626,5.42321 52.01419,3.24388 l 2.98537,-0.56444 10e-6,-3e-5 z m -53.80094,-9.6405 c 7.79814,-7.98981 -0.3374,-27.08126 -7.15236,-34.64588 -15.23187,-7.80355 -27.04294,-20.55891 -40.97467,-30.1777 -10.4926,-3.83459 -20.72665,3.45458 -30.86891,5.92416 -0.0453,10.06365 -0.69909,21.42632 8.12118,28.42355 14.52004,14.39052 32.04554,27.00539 51.82501,32.7376 6.35328,0.2972 13.02508,-0.0906 19.04975,-2.26173 z m 83.50406,0.40246 c 25.2731,-10.93528 48.98049,-28.50829 63.2323,-52.42352 5.13135,-6.88218 8.89925,-18.93073 -4.5039,-14.94624 -16.8365,10.62444 -32.04004,23.77389 -49.28802,33.83891 -10.45753,8.30307 -17.99077,19.72916 -25.42508,30.65607 2.59201,6.05314 11.01627,4.60982 15.9847,2.87478 z m 17.13239,-43.94226 c 12.7044,-10.45978 31.08633,-17.19825 37.7558,-33.0647 3.01347,-12.47686 3.2502,-25.38938 4.50677,-38.11675 -12.65901,-11.27445 -28.20607,-18.91974 -43.40605,-26.14359 -15.02198,1.20729 -27.16256,14.59192 -39.04242,23.2659 -6.33008,3.50729 -4.70501,11.38786 -6.42498,17.42952 -2.30162,14.12723 -4.96693,28.21133 -6.50128,42.44908 11.81933,8.77601 25.0137,16.83067 39.3852,20.2164 5.19325,0.0642 9.50804,-3.46642 13.72696,-6.03586 z m -90.61231,2.20203 c 11.50499,-4.40398 26.72917,-7.73003 32.13049,-19.95981 4.00512,-17.1369 6.23275,-34.67423 8.34942,-52.1312 -11.4304,-10.90503 -23.63443,-22.40262 -38.62218,-28.09335 -12.92896,-0.20831 -23.88695,8.96591 -35.39189,13.97725 -15.4786,4.214 -20.85474,18.33837 -21.53182,32.92606 -4.5414,14.43016 0.67048,29.25358 13.72268,37.20722 11.39983,8.43045 26.05135,21.87282 41.3433,16.07383 z M 233.59595,413.1592 c -9.33393,-17.31252 -15.77141,-36.27206 -18.34117,-55.7779 -9.23086,1.86406 -0.84093,24.5857 1.70252,33.85674 4.35238,12.52291 11.01099,24.03493 17.9145,35.29195 1.2625,-4.63161 2.01105,-9.23172 -1.27585,-13.37079 z m -4.02011,-77.06885 c 4.07612,-5.83801 10.56366,-10.44653 13.00862,-17.1162 4.31532,-20.19196 11.35412,-39.68498 21.42169,-57.7371 -0.4253,-11.66345 -13.41464,-18.74931 -19.88183,-5.89725 -18.42823,23.79114 -32.88422,52.78174 -33.52045,83.38008 -2.42306,10.49451 6.68447,18.12925 11.93101,5.70262 2.35073,-2.77421 4.69722,-5.55212 7.04096,-8.33215 z m 237.29596,14.46582 c 7.81119,-10.27829 18.6065,-22.4778 15.79925,-36.39965 -4.88805,-26.39812 -18.4071,-51.46203 -39.17346,-68.66578 -6.16521,-2.62148 -17.43286,-12.26834 -21.73379,-3.15655 -6.35676,12.24228 -22.16707,23.81573 -16.47055,39.06166 4.88321,15.04985 8.44596,30.78002 15.56456,44.95207 13.0946,10.24736 28.26311,18.21172 43.51398,24.93358 l 2.5,-0.72533 1e-5,0 z m -174.23004,-6.84411 c 12.09194,-6.12111 23.83701,-12.88927 35.62824,-19.56275 3.976,-13.92641 8.96642,-27.53221 13.61566,-41.22562 0.65014,-14.80698 -12.52611,-25.44538 -21.34045,-35.83006 -8.65588,-13.89097 -23.30422,-3.23609 -33.9899,1.84401 -23.51763,12.59108 -28.91693,40.30909 -36.90725,63.44609 1.10865,8.66403 9.02228,15.89554 14.79833,22.37251 7.98291,8.03256 16.95796,18.7665 28.19537,8.95582 z m 86.73004,-74.84467 c 6.25549,-0.86019 13.24173,-0.23049 19.0487,-2.00514 8.68662,-9.3757 16.33272,-20.35969 19.95129,-32.68207 -4.3678,-12.42193 -18.83931,-18.08332 -30.4572,-22.31162 -14.80112,-4.41469 -30.64906,-6.5768 -46.01186,-4.83242 -11.08866,5.67662 -30.97917,22.15027 -19.74859,34.91869 8.22602,9.81853 16.98199,19.17505 25.89765,28.36666 10.45927,0.10211 20.89433,-0.71595 31.32001,-1.4541 z"/>
</g>
</svg>
